assets/sideshift_full.svg

<svg fill="none" height="37" viewBox="0 0 300 37" width="300" xmlns="http://www.w3.org/2000/svg" xmlns:xlink="http://www.w3.org/1999/xlink"><linearGradient id="a"><stop offset="0" stop-color="#ff416c"/><stop offset="1" stop-color="#ff4b2b"/></linearGradient><linearGradient id="b" gradientUnits="userSpaceOnUse" x1="24.853" x2="6.425" xlink:href="#a" y1="27.852" y2="2.633"/><linearGradient id="c" gradientUnits="userSpaceOnUse" x1="31.3528" x2="12.8478" xlink:href="#a" y1="34.318" y2="8.995"/><g fill="#f2f2f2"><path d="m68.4059 13.8132-4.7317-4.8717h-6.4635l-3.4947 3.5767v2.9291l3.2473 1.665h7.7315l5.1647 2.7134v5.8275l-5.041 5.18h-8.7521l-5.5049-5.6425 1.9175-2.0042 4.7317 4.8717h6.4635l3.4947-3.5767v-2.96l-3.1545-1.6342h-7.6697l-5.3502-2.7133v-5.8275l5.0719-5.18h8.7521l5.5049 5.6425z"/><path d="m87.1709 8.9415h-4.9791v19.1167h4.9791v2.775h-12.6797v-2.775h4.9791v-19.1167h-4.9791v-2.775h12.6797z"/><path d="m106.363 30.8332h-13.7927v-24.6667h13.7927l5.072 5.18v14.3067zm2.351-18.315-3.464-3.5767h-9.9582v19.1167h9.9582l3.464-3.5767z"/><path d="m117.305 30.8332v-24.6667h18.865v2.775h-16.144v8.1708h9.34v2.775h-9.34v8.1709h16.144v2.775z"/><path d="m157.409 13.8132-4.732-4.8717h-6.463l-3.495 3.5767v2.9291l3.247 1.665h7.732l5.164 2.7134v5.8275l-5.041 5.18h-8.752l-5.504-5.6425 1.917-2.0042 4.732 4.8717h6.463l3.495-3.5767v-2.96l-3.155-1.6342h-7.669l-5.35-2.7133v-5.8275l5.071-5.18h8.752l5.505 5.6425z"/><path d="m180.411 30.8332v-10.9459h-13.421v10.9459h-2.722v-24.6667h2.722v10.9458h13.421v-10.9458h2.722v24.6667z"/><path d="m201.211 8.9415h-4.979v19.1167h4.979v2.775h-12.679v-2.775h4.979v-19.1167h-4.979v-2.775h12.679z"/><path d="m209.332 8.9415v8.1708h9.339v2.775h-9.339v10.9459h-2.722v-24.6667h18.865v2.775z"/><path d="m246.67 8.9415h-8.071v21.8917h-2.722v-21.8917h-8.071v-2.775h18.864z"/><path d="m252.855 30.8336v-4.44h3.061v4.44z"/><path d="m279.2 30.8332v-10.9459h-13.422v10.9459h-2.721v-19.4867l5.071-5.18h8.722l5.071 5.18v19.4867zm0-18.315-3.464-3.5767h-6.494l-3.464 3.5767v4.5941h13.422z"/><path d="m300 8.9415h-4.979v19.1167h4.979v2.775h-12.68v-2.775h4.979v-19.1167h-4.979v-2.775h12.68z"/></g><path d="m30.5887 4.42356c-3.2299-2.74893-7.4414-4.42356-12.0328-4.42356-10.25959 0-18.5559 8.27837-18.5559 18.5157 0 4.5816 1.67826 8.784 4.43314 12.0068z" fill="url(#b)"/><path d="m6.39648 32.4817c3.26152 2.8121 7.50462 4.5183 12.15942 4.5183 10.2596 0 18.5559-8.2784 18.5559-18.5157 0-4.6448-1.7099-8.87875-4.5282-12.13323z" fill="url(#c)"/></svg>

<svg width="300" height="37" viewBox="0 0 300 37" fill="none" xmlns="http://www.w3.org/2000/svg">
<defs>
<linearGradient id="paint0_linear_514_20541" x1="24.853" y1="27.852" x2="6.425" y2="2.633" gradientUnits="userSpaceOnUse">
<stop stop-color="#FF416C"/>
<stop offset="1" stop-color="#FF4B2B"/>
</linearGradient>
<linearGradient id="paint1_linear_514_20541" x1="31.3528" y1="34.318" x2="12.8478" y2="8.995" gradientUnits="userSpaceOnUse">
<stop stop-color="#FF416C"/>
<stop offset="1" stop-color="#FF4B2B"/>
</linearGradient>
</defs>

<path d="M68.4059 13.8132L63.6742 8.9415H57.2107L53.716 12.5182V15.4473L56.9633 17.1123H64.6948L69.8595 19.8257V25.6532L64.8185 30.8332H56.0664L50.5615 25.1907L52.479 23.1865L57.2107 28.0582H63.6742L67.1689 24.4815V21.5215L64.0144 19.8873H56.3447L50.9945 17.174V11.3465L56.0664 6.1665H64.8185L70.3234 11.809L68.4059 13.8132Z" fill="#F2F2F2"/>
<path d="M87.1709 8.9415H82.1918V28.0582H87.1709V30.8332H74.4912V28.0582H79.4703V8.9415H74.4912V6.1665H87.1709V8.9415Z" fill="#F2F2F2"/>
<path d="M106.363 30.8332H92.5703V6.1665H106.363L111.435 11.3465V25.6532L106.363 30.8332ZM108.714 12.5182L105.25 8.9415H95.2918V28.0582H105.25L108.714 24.4815V12.5182Z" fill="#F2F2F2"/>
<path d="M117.305 30.8332V6.1665H136.17V8.9415H120.026V17.1123H129.366V19.8873H120.026V28.0582H136.17V30.8332H117.305Z" fill="#F2F2F2"/>
<path d="M157.409 13.8132L152.677 8.9415H146.214L142.719 12.5182V15.4473L145.966 17.1123H153.698L158.862 19.8257V25.6532L153.821 30.8332H145.069L139.565 25.1907L141.482 23.1865L146.214 28.0582H152.677L156.172 24.4815V21.5215L153.017 19.8873H145.348L139.998 17.174V11.3465L145.069 6.1665H153.821L159.326 11.809L157.409 13.8132Z" fill="#F2F2F2"/>
<path d="M180.411 30.8332V19.8873H166.99V30.8332H164.268V6.1665H166.99V17.1123H180.411V6.1665H183.133V30.8332H180.411Z" fill="#F2F2F2"/>
<path d="M201.211 8.9415H196.232V28.0582H201.211V30.8332H188.532V28.0582H193.511V8.9415H188.532V6.1665H201.211V8.9415Z" fill="#F2F2F2"/>
<path d="M209.332 8.9415V17.1123H218.671V19.8873H209.332V30.8332H206.61V6.1665H225.475V8.9415H209.332Z" fill="#F2F2F2"/>
<path d="M246.67 8.9415H238.599V30.8332H235.877V8.9415H227.806V6.1665H246.67V8.9415Z" fill="#F2F2F2"/>
<path d="M252.855 30.8336V26.3936H255.916V30.8336H252.855Z" fill="#F2F2F2"/>
<path d="M279.2 30.8332V19.8873H265.778V30.8332H263.057V11.3465L268.128 6.1665H276.85L281.921 11.3465V30.8332H279.2ZM279.2 12.5182L275.736 8.9415H269.242L265.778 12.5182V17.1123H279.2V12.5182Z" fill="#F2F2F2"/>
<path d="M300 8.9415H295.021V28.0582H300V30.8332H287.32V28.0582H292.299V8.9415H287.32V6.1665H300V8.9415Z" fill="#F2F2F2"/>
<path d="M30.5887 4.42356C27.3588 1.67463 23.1473 0 18.5559 0C8.29631 0 0 8.27837 0 18.5157C0 23.0973 1.67826 27.2997 4.43314 30.5225L30.5887 4.42356Z" fill="url(#paint0_linear_514_20541)"/>
<path d="M6.39648 32.4817C9.658 35.2938 13.9011 37 18.5559 37C28.8155 37 37.1118 28.7216 37.1118 18.4843C37.1118 13.8395 35.4019 9.60555 32.5836 6.35107L6.39648 32.4817Z" fill="url(#paint1_linear_514_20541)"/>
</svg>
